Dominus_Dark_Funeral/22/apps/viber.svg

<svg xmlns="http://www.w3.org/2000/svg" width="24" height="24"><path d="M13.899 1.165c-.51 0-.88.37-.88.832a.88.88 0 0 0 .832.833c2.083.047 3.799.694 5.188 1.992 1.342 1.249 2.085 3.01 2.085 5.326a.88.88 0 0 0 .831.878.88.88 0 0 0 .927-.832c-.047-1.39-.231-2.64-.694-3.705a7.698 7.698 0 0 0-1.946-2.917c-1.714-1.574-3.844-2.407-6.344-2.407zM4.696 3.138a1.76 1.76 0 0 0-.845.202h-.047a8.098 8.098 0 0 0-1.899 1.529l-.047.091a3.103 3.103 0 0 0-.74 1.529v.232a2.362 2.362 0 0 0 .139.694v.14h.045a25.237 25.237 0 0 0 5.65 9.26l.045.047.094.046v.094h.139v.044a25.237 25.237 0 0 0 9.26 5.65l.048.046c.278.093.462.093.74.093a3.103 3.103 0 0 0 1.852-.787v-.046c.648-.555 1.111-1.157 1.574-1.851v-.095c.324-.74.188-1.481-.368-1.944a19.82 19.82 0 0 0-3.475-2.501c-.88-.463-1.806-.184-2.222.325l-.695.926c-.324.325-.926.323-.926.323-4.862-1.25-6.205-6.159-6.205-6.159 0-.047.002-.648.326-.926l.925-.74c.51-.37.787-1.297.324-2.177C8.157 6.72 7.6 5.887 7.23 5.33l-.833-1.017-.371-.465-.093-.138-.046-.046a1.43 1.43 0 0 0-.926-.51h-.045a1.76 1.76 0 0 0-.22-.017zm9.248 1.96c-.462-.046-.926.28-.926.743-.047.462.324.925.787.925 1.158.093 1.944.417 2.546 1.066a3.056 3.056 0 0 1 .836 2.316.833.833 0 0 0 .878.878.83.83 0 0 0 .835-.832c.047-1.343-.418-2.595-1.251-3.52-.927-.927-2.223-1.483-3.705-1.576z" fill="#e6e6e6"/></svg>

<?xml version="1.0" encoding="UTF-8" standalone="no"?>
<svg
   xmlns:dc="http://purl.org/dc/elements/1.1/"
   xmlns:cc="http://creativecommons.org/ns#"
   xmlns:rdf="http://www.w3.org/1999/02/22-rdf-syntax-ns#"
   xmlns:svg="http://www.w3.org/2000/svg"
   xmlns="http://www.w3.org/2000/svg"
   xmlns:sodipodi="http://sodipodi.sourceforge.net/DTD/sodipodi-0.dtd"
   xmlns:inkscape="http://www.inkscape.org/namespaces/inkscape"
   width="24"
   height="24"
   version="1.1"
   id="svg4"
   sodipodi:docname="viber.svg"
   inkscape:version="0.92.4 (5da689c313, 2019-01-14)">
  <metadata
     id="metadata10">
    <rdf:RDF>
      <cc:Work
         rdf:about="">
        <dc:format>image/svg+xml</dc:format>
        <dc:type
           rdf:resource="http://purl.org/dc/dcmitype/StillImage" />
        <dc:title></dc:title>
      </cc:Work>
    </rdf:RDF>
  </metadata>
  <defs
     id="defs8" />
  <sodipodi:namedview
     pagecolor="#ffffff"
     bordercolor="#666666"
     borderopacity="1"
     objecttolerance="10"
     gridtolerance="10"
     guidetolerance="10"
     inkscape:pageopacity="0"
     inkscape:pageshadow="2"
     inkscape:window-width="1138"
     inkscape:window-height="480"
     id="namedview6"
     showgrid="false"
     inkscape:zoom="9.8333333"
     inkscape:cx="1.0677966"
     inkscape:cy="12"
     inkscape:window-x="0"
     inkscape:window-y="25"
     inkscape:window-maximized="0"
     inkscape:current-layer="svg4" />
  <path
     d="m 13.899,1.165 c -0.51,0 -0.88,0.37 -0.88,0.832 a 0.88,0.88 0 0 0 0.832,0.833 c 2.083,0.047 3.799,0.694 5.188,1.992 1.342,1.249 2.085,3.01 2.085,5.326 a 0.88,0.88 0 0 0 0.831,0.878 0.88,0.88 0 0 0 0.927,-0.832 C 22.835,8.804 22.651,7.554 22.188,6.489 A 7.698,7.698 0 0 0 20.242,3.572 C 18.528,1.998 16.398,1.165 13.898,1.165 Z M 4.696,3.138 A 1.76,1.76 0 0 0 3.851,3.34 H 3.804 A 8.098,8.098 0 0 0 1.905,4.869 L 1.858,4.96 a 3.103,3.103 0 0 0 -0.74,1.529 v 0.232 a 2.362,2.362 0 0 0 0.139,0.694 v 0.14 h 0.045 a 25.237,25.237 0 0 0 5.65,9.26 l 0.045,0.047 0.094,0.046 v 0.094 H 7.23 v 0.044 a 25.237,25.237 0 0 0 9.26,5.65 l 0.048,0.046 c 0.278,0.093 0.462,0.093 0.74,0.093 a 3.103,3.103 0 0 0 1.852,-0.787 v -0.046 c 0.648,-0.555 1.111,-1.157 1.574,-1.851 v -0.095 c 0.324,-0.74 0.188,-1.481 -0.368,-1.944 a 19.82,19.82 0 0 0 -3.475,-2.501 c -0.88,-0.463 -1.806,-0.184 -2.222,0.325 l -0.695,0.926 c -0.324,0.325 -0.926,0.323 -0.926,0.323 -4.862,-1.25 -6.205,-6.159 -6.205,-6.159 0,-0.047 0.002,-0.648 0.326,-0.926 L 8.064,9.36 C 8.574,8.99 8.851,8.063 8.388,7.183 8.157,6.72 7.6,5.887 7.23,5.33 L 6.397,4.313 6.026,3.848 5.933,3.71 5.887,3.664 A 1.43,1.43 0 0 0 4.961,3.154 H 4.916 A 1.76,1.76 0 0 0 4.696,3.137 Z m 9.248,1.96 c -0.462,-0.046 -0.926,0.28 -0.926,0.743 -0.047,0.462 0.324,0.925 0.787,0.925 1.158,0.093 1.944,0.417 2.546,1.066 a 3.056,3.056 0 0 1 0.836,2.316 0.833,0.833 0 0 0 0.878,0.878 0.83,0.83 0 0 0 0.835,-0.832 C 18.947,8.851 18.482,7.599 17.649,6.674 16.722,5.747 15.426,5.191 13.944,5.098 Z"
     id="path2"
     inkscape:connector-curvature="0"
     style="fill:#e6e6e6" />
</svg>
